src/assets/images/currency/LDO.svg

<svg fill="none" height="512" viewBox="0 0 512 512" width="512" xmlns="http://www.w3.org/2000/svg"><circle cx="256" cy="256" fill="#f69988" r="256"/><g fill="#fff"><path clip-rule="evenodd" d="m256.119 75 89.8 140.234-89.804 52.212-89.794-52.214zm-62.309 133.601 62.309-97.304 62.31 97.304-62.314 36.229z" fill-rule="evenodd"/><path d="m255.987 298.269-104.171-60.573-2.844 4.442c-32.084 50.104-24.919 115.721 17.227 157.76 49.596 49.469 130.006 49.469 179.602 0 42.146-42.039 49.311-107.656 17.227-157.76l-2.845-4.443-104.192 60.577z"/></g></svg>

<svg width="512" height="512" viewBox="0 0 512 512" fill="none" xmlns="http://www.w3.org/2000/svg">
<circle cx="256" cy="256" r="256" fill="#F69988"/>
<path fill-rule="evenodd" clip-rule="evenodd" d="M256.119 75L345.919 215.234L256.115 267.446L166.321 215.232L256.119 75ZM193.81 208.601L256.119 111.297L318.429 208.601L256.115 244.83L193.81 208.601Z" fill="white"/>
<path d="M255.987 298.269L151.816 237.696L148.972 242.138C116.888 292.242 124.053 357.859 166.199 399.898C215.795 449.367 296.205 449.367 345.801 399.898C387.947 357.859 395.112 292.242 363.028 242.138L360.183 237.695L255.991 298.272L255.987 298.269Z" fill="white"/>
</svg>
